svg/Pictogram/pictograms-nps-accessibility-large_print.svg

<svg xmlns="http://www.w3.org/2000/svg" viewBox="0 0 256 256"><path d="m0 0c-.541 0-.98-.441-.98-.982v-7.524c0-.541.439-.982.98-.982h7.527c.541 0 .983.441.983.982v7.524c0 .541-.442.982-.983.982h-7.527" fill="#fff" transform="matrix(25.88211 0 0-25.88211 30.593 5.215)"/><path d="m0 0c-.652 0-1.182.529-1.182 1.184v7.523c0 .652.53 1.182 1.182 1.182h7.527c.653 0 1.182-.53 1.182-1.182v-7.523c0-.655-.529-1.184-1.182-1.184h-7.527" transform="matrix(25.88211 0 0-25.88211 30.593 256)"/><g fill="#fff"><path d="m0 0h.49v-1.819h1.088v-.412h-1.578v2.231" transform="matrix(25.88211 0 0-25.88211 22.96 54.55)"/><path d="m0 0c-.074-.066-.23-.069-.369-.094-.137-.028-.262-.075-.262-.238 0-.165.129-.206.272-.206.347 0 .359.275.359.372v.166m-1.025.328c.025.415.398.54.759.54.323 0 .709-.071.709-.459v-.841c0-.146.016-.294.057-.359h-.449c-.016.05-.03.103-.031.156-.141-.146-.348-.2-.545-.2-.305 0-.549.153-.549.484 0 .367.275.451.549.492.273.037.525.031.525.212 0 .19-.131.218-.287.218-.168 0-.277-.068-.293-.243h-.445" transform="matrix(25.88211 0 0-25.88211 96.56 91.83)"/><path d="m0 0h.422v-.3h.008c.08.203.299.344.515.344.032 0 .069-.006.096-.016v-.412c-.041.009-.105.016-.158.016-.326 0-.438-.235-.438-.519v-.728h-.445v1.615" transform="matrix(25.88211 0 0-25.88211 117.74 70.5)"/><path d="m0 0c0 .263-.09.497-.379.497-.25 0-.359-.219-.359-.46 0-.23.088-.484.359-.484.254 0 .379.216.379.447m.422-.725c0-.265-.094-.715-.838-.715-.318 0-.689.149-.713.518h.441c.042-.166.176-.222.333-.222.246 0 .355.169.355.4v.213h-.006c-.098-.169-.291-.25-.484-.25-.485 0-.692.369-.692.812 0 .419.241.8.694.8.213 0 .375-.071.482-.259h.006v.215h.422v-1.512z" transform="matrix(25.88211 0 0-25.88211 179.31 90.88)"/><path d="m0 0c-.041.225-.137.344-.354.344-.281 0-.361-.219-.367-.344h.721m-.721-.281c.012-.282.149-.409.397-.409.178 0 .322.109.349.209h.391c-.125-.381-.391-.544-.756-.544-.51 0-.826.35-.826.85 0 .485.336.853.826.853.549 0 .815-.462.783-.959h-1.164" transform="matrix(25.88211 0 0-25.88211 228.4 86.91)"/><path d="m0 0h.381c.228 0 .432.05.432.334 0 .284-.204.334-.432.334h-.381v-.668m-.49 1.05h1.01c.556 0 .771-.354.771-.716 0-.362-.215-.716-.771-.716h-.516v-.8h-.49v2.232" transform="matrix(25.88211 0 0-25.88211 55.16 172.31)"/><path d="m0 0h.422v-.3h.006c.082.203.301.344.515.344.032 0 .069-.006.098-.016v-.412c-.041.009-.107.016-.16.016-.324 0-.438-.235-.438-.519v-.728h-.443v1.615" transform="matrix(25.88211 0 0-25.88211 96 161.09)"/><path d="m128.6 161.1h11.466v41.8h-11.466v-41.8m11.492-6.471h-11.466v-9.473h11.466v9.473"/><path d="m0 0h.422v-.225h.001c.113.182.306.269.494.269.47 0 .59-.266.59-.665v-.994h-.444v.912c0 .265-.078.397-.285.397-.24 0-.344-.134-.344-.463v-.846h-.443v1.615" transform="matrix(25.88211 0 0-25.88211 149.94 161.09)"/><path d="m0 0h.324v-.297h-.324v-.8c0-.149.037-.187.188-.187.046 0 .089.003.136.013v-.347c-.074-.013-.172-.016-.26-.016-.271 0-.507.063-.507.384v.953h-.27v.297h.27v.484h.443v-.484" transform="matrix(25.88211 0 0-25.88211 213.28 161.09)"/></g></svg>

<?xml version="1.0" encoding="UTF-8" standalone="no"?>
<!-- Created with Inkscape (http://www.inkscape.org/) -->
<svg
   xmlns:dc="http://purl.org/dc/elements/1.1/"
   xmlns:cc="http://creativecommons.org/ns#"
   xmlns:rdf="http://www.w3.org/1999/02/22-rdf-syntax-ns#"
   xmlns:svg="http://www.w3.org/2000/svg"
   xmlns="http://www.w3.org/2000/svg"
   xmlns:sodipodi="http://sodipodi.sourceforge.net/DTD/sodipodi-0.dtd"
   xmlns:inkscape="http://www.inkscape.org/namespaces/inkscape"
   width="256"
   height="256"
   id="svg5294"
   sodipodi:version="0.32"
   inkscape:version="0.46"
   version="1.0"
   sodipodi:docname="pictograms-nps-accessibility-large_print-2.svg"
   inkscape:output_extension="org.inkscape.output.svg.inkscape">
  <defs
     id="defs5296">
    <inkscape:perspective
       sodipodi:type="inkscape:persp3d"
       inkscape:vp_x="0 : 526.18109 : 1"
       inkscape:vp_y="0 : 1000 : 0"
       inkscape:vp_z="744.09448 : 526.18109 : 1"
       inkscape:persp3d-origin="372.04724 : 350.78739 : 1"
       id="perspective5302" />
  </defs>
  <sodipodi:namedview
     id="base"
     pagecolor="#ffffff"
     bordercolor="#666666"
     borderopacity="1.0"
     gridtolerance="10000"
     guidetolerance="10"
     objecttolerance="10"
     inkscape:pageopacity="0.0"
     inkscape:pageshadow="2"
     inkscape:zoom="1.4"
     inkscape:cx="124.57192"
     inkscape:cy="97.073476"
     inkscape:document-units="px"
     inkscape:current-layer="layer1"
     showgrid="false"
     inkscape:window-width="747"
     inkscape:window-height="674"
     inkscape:window-x="0"
     inkscape:window-y="309" />
  <metadata
     id="metadata5299">
    <rdf:RDF>
      <cc:Work
         rdf:about="">
        <dc:format>image/svg+xml</dc:format>
        <dc:type
           rdf:resource="http://purl.org/dc/dcmitype/StillImage" />
      </cc:Work>
    </rdf:RDF>
  </metadata>
  <g
     inkscape:label="Layer 1"
     inkscape:groupmode="layer"
     id="layer1">
    <g
       id="g3462"
       transform="matrix(25.882115,0,0,-25.882115,30.59266,5.2151427)">
      <path
         d="M 0,0 C -0.541,0 -0.98,-0.441 -0.98,-0.982 L -0.98,-8.506 C -0.98,-9.047 -0.541,-9.488 0,-9.488 L 7.527,-9.488 C 8.068,-9.488 8.51,-9.047 8.51,-8.506 L 8.51,-0.982 C 8.51,-0.441 8.068,0 7.527,0 L 0,0 z"
         style="fill:#ffffff;fill-opacity:1;fill-rule:nonzero;stroke:none"
         id="path3464" />
    </g>
    <g
       id="g3466"
       transform="matrix(25.882115,0,0,-25.882115,30.59266,256)">
      <path
         d="M 0,0 C -0.652,0 -1.182,0.529 -1.182,1.184 L -1.182,8.707 C -1.182,9.359 -0.652,9.889 0,9.889 L 7.527,9.889 C 8.18,9.889 8.709,9.359 8.709,8.707 L 8.709,1.184 C 8.709,0.529 8.18,0 7.527,0 L 0,0 z"
         style="fill:#000000;fill-opacity:1;fill-rule:nonzero;stroke:none"
         id="path3468" />
    </g>
    <g
       id="g3470"
       transform="matrix(25.882115,0,0,-25.882115,22.960335,54.554322)">
      <path
         d="M 0,0 L 0.49,0 L 0.49,-1.819 L 1.578,-1.819 L 1.578,-2.231 L 0,-2.231 L 0,0 z"
         style="fill:#ffffff;fill-opacity:1;fill-rule:nonzero;stroke:none"
         id="path3472" />
    </g>
    <g
       id="g3474"
       transform="matrix(25.882115,0,0,-25.882115,96.560788,91.834921)">
      <path
         d="M 0,0 C -0.074,-0.066 -0.23,-0.069 -0.369,-0.094 C -0.506,-0.122 -0.631,-0.169 -0.631,-0.332 C -0.631,-0.497 -0.502,-0.538 -0.359,-0.538 C -0.012,-0.538 0,-0.263 0,-0.166 L 0,0 z M -1.025,0.328 C -1,0.743 -0.627,0.868 -0.266,0.868 C 0.057,0.868 0.443,0.797 0.443,0.409 L 0.443,-0.432 C 0.443,-0.578 0.459,-0.726 0.5,-0.791 L 0.051,-0.791 C 0.035,-0.741 0.021,-0.688 0.02,-0.635 C -0.121,-0.781 -0.328,-0.835 -0.525,-0.835 C -0.83,-0.835 -1.074,-0.682 -1.074,-0.351 C -1.074,0.016 -0.799,0.1 -0.525,0.141 C -0.252,0.178 0,0.172 0,0.353 C 0,0.543 -0.131,0.571 -0.287,0.571 C -0.455,0.571 -0.564,0.503 -0.58,0.328 L -1.025,0.328 z"
         style="fill:#ffffff;fill-opacity:1;fill-rule:nonzero;stroke:none"
         id="path3476" />
    </g>
    <g
       id="g3478"
       transform="matrix(25.882115,0,0,-25.882115,117.74312,70.502881)">
      <path
         d="M 0,0 L 0.422,0 L 0.422,-0.3 L 0.43,-0.3 C 0.51,-0.097 0.729,0.044 0.945,0.044 C 0.977,0.044 1.014,0.038 1.041,0.028 L 1.041,-0.384 C 1,-0.375 0.936,-0.368 0.883,-0.368 C 0.557,-0.368 0.445,-0.603 0.445,-0.887 L 0.445,-1.615 L 0,-1.615 L 0,0 z"
         style="fill:#ffffff;fill-opacity:1;fill-rule:nonzero;stroke:none"
         id="path3480" />
    </g>
    <g
       id="g3482"
       transform="matrix(25.882115,0,0,-25.882115,179.31419,90.875005)">
      <path
         d="M 0,0 C 0,0.263 -0.09,0.497 -0.379,0.497 C -0.629,0.497 -0.738,0.278 -0.738,0.037 C -0.738,-0.193 -0.65,-0.447 -0.379,-0.447 C -0.125,-0.447 0,-0.231 0,0 M 0.422,-0.725 C 0.422,-0.99 0.328,-1.44 -0.416,-1.44 C -0.734,-1.44 -1.105,-1.291 -1.129,-0.922 L -0.688,-0.922 C -0.646,-1.088 -0.512,-1.144 -0.355,-1.144 C -0.109,-1.144 0,-0.975 0,-0.744 L 0,-0.531 L -0.006,-0.531 C -0.104,-0.7 -0.297,-0.781 -0.49,-0.781 C -0.975,-0.781 -1.182,-0.412 -1.182,0.031 C -1.182,0.45 -0.941,0.831 -0.488,0.831 C -0.275,0.831 -0.113,0.76 -0.006,0.572 L 0,0.572 L 0,0.787 L 0.422,0.787 L 0.422,-0.725 z"
         style="fill:#ffffff;fill-opacity:1;fill-rule:nonzero;stroke:none"
         id="path3484" />
    </g>
    <g
       id="g3486"
       transform="matrix(25.882115,0,0,-25.882115,228.39969,86.906966)">
      <path
         d="M 0,0 C -0.041,0.225 -0.137,0.344 -0.354,0.344 C -0.635,0.344 -0.715,0.125 -0.721,0 L 0,0 z M -0.721,-0.281 C -0.709,-0.563 -0.572,-0.69 -0.324,-0.69 C -0.146,-0.69 -0.002,-0.581 0.025,-0.481 L 0.416,-0.481 C 0.291,-0.862 0.025,-1.025 -0.34,-1.025 C -0.85,-1.025 -1.166,-0.675 -1.166,-0.175 C -1.166,0.31 -0.83,0.678 -0.34,0.678 C 0.209,0.678 0.475,0.216 0.443,-0.281 L -0.721,-0.281 z"
         style="fill:#ffffff;fill-opacity:1;fill-rule:nonzero;stroke:none"
         id="path3488" />
    </g>
    <g
       id="g3490"
       transform="matrix(25.882115,0,0,-25.882115,55.159964,172.31298)">
      <path
         d="M 0,0 L 0.381,0 C 0.609,0 0.813,0.05 0.813,0.334 C 0.813,0.618 0.609,0.668 0.381,0.668 L 0,0.668 L 0,0 z M -0.49,1.05 L 0.516,1.05 C 1.072,1.05 1.287,0.696 1.287,0.334 C 1.287,-0.028 1.072,-0.382 0.516,-0.382 L 0,-0.382 L 0,-1.182 L -0.49,-1.182 L -0.49,1.05 z"
         style="fill:#ffffff;fill-opacity:1;fill-rule:nonzero;stroke:none"
         id="path3492" />
    </g>
    <g
       id="g3494"
       transform="matrix(25.882115,0,0,-25.882115,96.004426,161.09028)">
      <path
         d="M 0,0 L 0.422,0 L 0.422,-0.3 L 0.428,-0.3 C 0.51,-0.097 0.729,0.044 0.943,0.044 C 0.975,0.044 1.012,0.038 1.041,0.028 L 1.041,-0.384 C 1,-0.375 0.934,-0.368 0.881,-0.368 C 0.557,-0.368 0.443,-0.603 0.443,-0.887 L 0.443,-1.615 L 0,-1.615 L 0,0 z"
         style="fill:#ffffff;fill-opacity:1;fill-rule:nonzero;stroke:none"
         id="path3496" />
    </g>
    <path
       d="M 128.60057,161.09546 L 140.06635,161.09546 L 140.06635,202.89508 L 128.60057,202.89508 L 128.60057,161.09546 z M 140.09223,154.62493 L 128.62645,154.62493 L 128.62645,145.15208 L 140.09223,145.15208 L 140.09223,154.62493 z"
       style="fill:#ffffff;fill-opacity:1;fill-rule:nonzero;stroke:none"
       id="path3498" />
    <g
       id="g3500"
       transform="matrix(25.882115,0,0,-25.882115,149.94275,161.09028)">
      <path
         d="M 0,0 L 0.422,0 L 0.422,-0.225 L 0.432,-0.225 C 0.545,-0.043 0.738,0.044 0.926,0.044 C 1.396,0.044 1.516,-0.222 1.516,-0.621 L 1.516,-1.615 L 1.072,-1.615 L 1.072,-0.703 C 1.072,-0.438 0.994,-0.306 0.787,-0.306 C 0.547,-0.306 0.443,-0.44 0.443,-0.769 L 0.443,-1.615 L 0,-1.615 L 0,0 z"
         style="fill:#ffffff;fill-opacity:1;fill-rule:nonzero;stroke:none"
         id="path3502" />
    </g>
    <g
       id="g3504"
       transform="matrix(25.882115,0,0,-25.882115,213.28453,161.09028)">
      <path
         d="M 0,0 L 0.324,0 L 0.324,-0.297 L 0,-0.297 L 0,-1.097 C 0,-1.246 0.037,-1.284 0.188,-1.284 C 0.234,-1.284 0.277,-1.281 0.324,-1.271 L 0.324,-1.618 C 0.25,-1.631 0.152,-1.634 0.064,-1.634 C -0.207,-1.634 -0.443,-1.571 -0.443,-1.25 L -0.443,-0.297 L -0.713,-0.297 L -0.713,0 L -0.443,0 L -0.443,0.484 L 0,0.484 L 0,0 z"
         style="fill:#ffffff;fill-opacity:1;fill-rule:nonzero;stroke:none"
         id="path3506" />
    </g>
  </g>
</svg>
